!!!COM: Bach, Johann Sebastian
!!!OPR: Joh. Seb. Bachs vierstimmige Choralges‰nge
!!!XEN: Four-part Chorales
!!!OTL: 103. Jesu, du mein liebstes leben
!!!SCT: BWV 356
!!!SCA: Thematisch-systematisches Verzeichnis der musikalischen Werke Johann Sebastian Bach: Bach-Werke-Verzeichnis (Schmieder)
!!!YOR: Bach Gesellschaft Edition xxxix
!!!ENC: Steven Rasmussen
!!!CDT: 1685/3//-1750/7/28/
!!!OCY: Deutschland
!!!YEC: Copyright (c) 1994, 2000 Center for Computer Assisted Research in the Humanities
!!!YEM: Rights to all derivative editions reserved
!!!YEN: United States of America
**kern	**silbe	**kern	**silbe	**kern	**silbe	**kern	**silbe
*I:[BASSO]	*I:[BASSO]	*I:[TENORE]	*I:[TENORE]	*I:[ALTO]	*I:[ALTO]	*I:[SOPRANO]	*I:[SOPRANO]
*>[A,A,B,B]	*	*>[A,A,B,B]	*	*>[A,A,B,B]	*	*>[A,A,B,B]	*
*>A	*	*>A	*	*>A	*	*>A	*
*clefF4	*	*clefGv2	*	*clefG2	*	*clefG2	*
*k[b-e-]	*	*k[b-e-]	*	*k[b-e-]	*	*k[b-e-]	*
*g:	*	*g:	*	*g:	*	*g:	*
*M3/4	*	*M3/4	*	*M3/4	*	*M3/4	*
=1-	=1-	=1-	=1-	=1-	=1-	=1-	=1-
4GG	.	2B-	.	2d	Je-der	2g	Je-der
4G	.	.	.	.	.	.	.
4F#	.	4d	.	[4a	-su,du	4a	-su,du
=2	=2	=2	=2	=2	=2	=2	=2
4G	.	4d	dubist	8aL]	.	4b-	dubist
.	.	.	.	8gJ	.	.	.
4A	.	4c	.	8fL	dubist	4cc	.
.	.	.	.	8e-J	.	.	.
4B-	.	[4B-	meinf√ºr	4d	meinf√ºr	4dd	meinf√ºr
=3	=3	=3	=3	=3	=3	=3	=3
4En	lieb-mich	4B-]	.	4g	.	2cc	lieb-mich
4F#	.	4A	lieb-mich	4a	.	.	.
4G	-stesge-	8B-L	-stesge-	8aL	.	4b-	-stesge-
.	.	8dJ	.	8gJ	.	.	.
=4	=4	=4	=4	=4	=4	=4	=4
4C	Le--ge-	8e-L	Le--ge-	4g	.	2a	Le--ge-
.	.	8A	.	.	.	.	.
4D	.	8d	.	4f#	.	.	.
.	.	8cJ	.	.	.	.	.
4GG;	-ben,-ben	4B-;	-ben,-ben	4d;	.	4g;	-ben,-ben
=5	=5	=5	=5	=5	=5	=5	=5
4BB-	mei-an	4f	mei-an	4b-	.	4dd	mei-an
4C	.	4e-	-nerdes	8aL	.	4ee-	.
.	.	.	.	8gJ	.	.	.
4D	-nerdes	[4d	See-bit-	4f	.	4ff	-nerdes
=6	=6	=6	=6	=6	=6	=6	=6
4GG	See-bit-	4d]	.	4g	.	4b-	See-bit-
4AA	.	4c	-len-tern	8fL	.	4cc	.
.	.	.	.	8e-J	.	.	.
4BB-	-len-tern	[4B-	Br√§u-Kreu-	4d	.	4dd	-len-tern
=7	=7	=7	=7	=7	=7	=7	=7
4E-	Br√§u-Kreu-	4B-]	.	4g	.	2cc	Br√§u-Kreu-
4C	.	8AL	.	8e-L	.	.	.
.	.	8GJ	.	8gJ	.	.	.
4F	-ti--zes	4A	-ti--zes	8fL	.	4cc	-ti--zes
.	.	.	.	8e-J	.	.	.
=8	=8	=8	=8	=8	=8	=8	=8
2.BB-;	-gam,Stamm,	2.B-;	-gam,Stamm,	2.d;	.	2.b-;	-gam,Stamm,
=9:!!:	=9:!!:	=9:!!:	=9:!!:	=9:!!:	=9:!!:	=9:!!:	=9:!!:
*>B	*	*>B	*	*>B	*	*>B	*
4FF	.	2c	.	2f	Je-Hirt	2a	Je-Hirt
4F	.	.	.	.	.	.	.
4En	.	4c	.	[4g	-su,und	4g	-su,und
=10	=10	=10	=10	=10	=10	=10	=10
4F	.	4c	mei-K√∂-	8gL]	.	(4a	mei-K√∂-
.	.	.	.	8fJ	.	.	.
4G	.	4B-	.	8enL	mei-K√∂-	4b-)	.
.	.	.	.	8dJ	.	.	.
4A	.	[4A	-ne-nig,	4c	-ne-nig,	4cc	-ne-nig,
=11	=11	=11	=11	=11	=11	=11	=11
4D	Freud'Licht	4A]	.	4f	Freud'Licht	2b-	Freud'Licht
4En	.	4G	Freud'Licht	4g	.	.	.
4F	undund	8AL	undund	8gL	.	4a	undund
.	.	8cJ	.	8fJ	.	.	.
=12	=12	=12	=12	=12	=12	=12	=12
4BB-	.	8dL	.	4f	.	2g	Won-Son-
.	.	8G	.	.	.	.	.
4C	.	8c	.	4en	.	.	.
.	.	8B-J	.	.	.	.	.
4FF;	.	4A;	.	4c;	.	4f;	-ne,-ne,
=13	=13	=13	=13	=13	=13	=13	=13
4D	.	4d	.	4f	.	2b-	duach,
4En	.	2c	mein'wie	4g	.	.	.
4F#	mein'wie	.	.	[4d	mein'wie	4a	mein'wie
=14	=14	=14	=14	=14	=14	=14	=14
4G	Hoff-soll	8B-L	Hoff-soll	8dL]	.	4b-	Hoff-soll
.	.	8e-	.	8gJ	.	.	.
4A	.	8d	.	8fL	Hoff-soll	4cc	.
.	.	8cJ	.	8e-J	.	.	.
4B-	-nung,ich	[4B-	-nung,ich	4d	-nung,ich	4dd	-nung,ich
=15	=15	=15	=15	=15	=15	=15	=15
2E-	Schatzw√ºr-	8B-L]	.	8gL	.	2dd	Schatzw√ºr-
.	.	8AJ	.	8f#	.	.	.
.	.	4B-	Schatzw√ºr-	8g	.	.	.
.	.	.	.	8b-J	.	.	.
4E-	und-dig-	4e-	und-dig-	8aL	.	4cc	und-dig-
.	.	.	.	8gJ	.	.	.
=16	=16	=16	=16	=16	=16	=16	=16
2.D;	Teil,-lich,	2.A;	Teil,-lich,	2.f#;	.	2.dd;	Teil,-lich,
=17	=17	=17	=17	=17	=17	=17	=17
8DL	.	2d	.	2f#	.	2a	mein'mein
8DD	.	.	.	.	.	.	.
8D	.	.	.	.	.	.	.
8CJ	.	.	.	.	.	.	.
8BB-L	.	4d	.	4f#	.	4dd	Er-Herr
8AAJ	.	.	.	.	.	.	.
=18	=18	=18	=18	=18	=18	=18	=18
8BB-L	.	4d	.	4g	.	4g	-l√∂-Je-
8AA	.	.	.	.	.	.	.
8GG	.	4A	.	4d	.	4a	.
8FF#J	.	.	.	.	.	.	.
4GG	.	4G	.	4d	.	4b-	-sung,-su,
=19	=19	=19	=19	=19	=19	=19	=19
4C	.	2G	.	4e-	.	2a	Schmuckprei-
4AA	.	.	.	4c	.	.	.
4D	.	4F#	.	8dL	.	4a	und-sen
.	.	.	.	8cJ	.	.	.
=20	=20	=20	=20	=20	=20	=20	=20
2.GG;	.	2.D;	.	2.Bn;	.	2.g;	Heil,dich?
==:|!	==:|!	==:|!	==:|!	==:|!	==:|!	==:|!	==:|!
*-	*-	*-	*-	*-	*-	*-	*-
!!!RWG: Key is interpreted using the Humdrum key tool.
!!!END: 1994/07/08
!!!EMD: Converted from MuseData to Humdrum Dec 19, 2000, by Andreas Kornstaedt using muse2kern.
!!!EED: Craig Stuart Sapp
!!!EEV: 2024/03/31
!!!ONB: Some non-unicode characters
!!!filter-keyboard: satb2gs
